X:312
T: DORT AN JENEM BERGE
N: B0370
O: Europa, Mitteleuropa, Deutschland, Frankfurt a.d. Oder, Seelow
R: Liebes - Lied, Liebes - Lust
M: 3/4
L: 1/8
K: F
 | FGA2G2 | FAc4
d2c2B2 | A2BGF2
c2c2G2 | ceg4
f2e2d2 | c4z2
ccdcBA | B2d4
BAG2F2 | c3dc2
c2B2A2 | GFf4
AFB2G2 | F4z2

